packages/core/src/svgs/networks/mono/injective.svg

<svg width="24" height="24" viewBox="0 0 24 24" fill="none" xmlns="http://www.w3.org/2000/svg">
<path d="M4.42496 5.45606C4.55038 5.29856 4.67434 5.1498 4.81288 4.99959L4.83768 4.98063L4.88143 4.94272L4.89309 4.93105C5.34126 4.51708 5.8686 4.19809 6.44333 3.99333C7.15849 3.74552 7.92906 3.70438 8.66655 3.87463C9.40409 4.04488 10.0786 4.41962 10.6128 4.95584C12.3191 6.54982 12.1688 9.12387 10.7994 10.8301C9.08734 13.3808 6.13124 16.9377 10.2249 20.1242C10.9555 20.693 11.5068 21.1684 13.8182 21.8364C12.3059 22.1178 10.9001 22.0245 9.33672 21.6307C8.23127 21.0065 6.49291 19.6678 5.89936 17.8623C5.00539 15.125 7.47438 11.0372 8.66878 9.46221C10.3065 7.27463 7.65668 4.91792 5.7054 7.55609C4.68746 8.92986 2.89952 12.812 3.51786 15.6996C3.88683 17.33 4.36808 18.5244 6.28145 20.1622C5.9224 19.9475 5.57797 19.7092 5.25039 19.449C3.33016 17.676 2.17147 15.228 2.01755 12.6188C1.86365 10.0098 2.72649 7.44256 4.42496 5.45606Z" fill="white"/>
<path d="M19.5739 18.5434C19.4514 18.699 19.3227 18.8511 19.1875 18.9999L19.1627 19.0188L19.1189 19.0553L19.1058 19.0684C18.6576 19.4824 18.1303 19.8014 17.5556 20.0061C16.1614 20.5063 14.6053 20.1928 13.3876 19.0436C11.6813 17.4496 11.8374 14.8742 13.1995 13.1679C14.9116 10.6187 17.8677 7.06175 13.7741 3.87378C13.0434 3.30502 12.4936 2.83106 10.1807 2.16167C11.671 1.8921 13.2028 1.96239 14.6622 2.3673C15.7676 2.99439 17.506 4.33025 18.0995 6.13715C18.9935 8.87448 16.5245 12.9623 15.3301 14.5373C13.6938 16.7248 16.3437 19.0801 18.2935 16.4434C19.3114 15.0681 21.0994 11.1875 20.481 8.29989C20.1121 6.66799 19.6308 5.4736 17.7189 3.83732C18.0747 4.04927 18.4185 4.2865 18.75 4.549C20.6703 6.32229 21.8291 8.77068 21.9827 11.3801C22.1364 13.9895 21.2731 16.557 19.5739 18.5434Z" fill="white"/>
</svg>

<svg xmlns="http://www.w3.org/2000/svg" width="24" height="24" fill="none" viewBox="0 0 24 24">
    <path fill="#fff" d="M4.425 5.456A8 8 0 0 1 4.813 5l.025-.02.043-.037.012-.012a4.5 4.5 0 0 1 1.55-.938 4.03 4.03 0 0 1 4.17.963c1.706 1.594 1.556 4.168.186 5.874-1.712 2.55-4.668 6.108-.574 9.294.73.569 1.282 1.044 3.593 1.712-1.512.282-2.918.189-4.481-.205-1.106-.625-2.844-1.963-3.438-3.769-.894-2.737 1.575-6.825 2.77-8.4 1.637-2.187-1.012-4.544-2.964-1.906C4.687 8.93 2.9 12.812 3.518 15.7c.369 1.63.85 2.824 2.763 4.462a9.5 9.5 0 0 1-1.03-.713 10.106 10.106 0 0 1-.826-13.993"/>
    <path fill="#fff" d="M19.574 18.543a9 9 0 0 1-.387.457l-.024.019-.044.036-.013.013a4.5 4.5 0 0 1-1.55.938c-1.395.5-2.95.187-4.168-.962-1.707-1.594-1.55-4.17-.188-5.876 1.712-2.55 4.668-6.106.574-9.294-.73-.569-1.28-1.043-3.593-1.712 1.49-.27 3.022-.2 4.481.205 1.106.627 2.844 1.963 3.437 3.77.895 2.737-1.575 6.825-2.769 8.4-1.636 2.188 1.014 4.543 2.964 1.906 1.017-1.375 2.805-5.256 2.187-8.143-.369-1.632-.85-2.826-2.762-4.463q.534.319 1.031.712a10.107 10.107 0 0 1 .824 13.994"/>
</svg>
